svgs/sharp-light/briefcase.svg

<svg xmlns="http://www.w3.org/2000/svg" viewBox="0 0 512 512"><!--! Font Awesome Pro 6.6.0 by @fontawesome - https://fontawesome.com License - https://fontawesome.com/license (Commercial License) Copyright 2024 Fonticons, Inc. --><path d="M144 0L128 0l0 16 0 80L32 96 0 96l0 32L0 448l0 32 32 0 448 0 32 0 0-32 0-320 0-32-32 0-96 0 0-80 0-16L368 0 144 0zM352 96L160 96l0-64 192 0 0 64zM144 128l224 0 112 0 0 128-144 0-32 0-96 0-32 0L32 256l0-128 112 0zM480 288l0 160L32 448l0-160 144 0 0 48 0 32 32 0 96 0 32 0 0-32 0-48 144 0zm-272 0l96 0 0 48-96 0 0-48z"/></svg>

<svg xmlns="http://www.w3.org/2000/svg" viewBox="0 0 512 512"><!--! Font Awesome Pro 6.4.2 by @fontawesome - https://fontawesome.com License - https://fontawesome.com/license (Commercial License) Copyright 2023 Fonticons, Inc. --><path d="M144 0H128V16 96H32 0v32V448v32H32 480h32V448 128 96H480 384V16 0H368 144zM352 96H160V32H352V96zM144 128H368 480V256H336 304 208 176 32V128H144zM480 288V448H32V288H176v48 32h32 96 32V336 288H480zm-272 0h96v48H208V288z"/></svg>
